X: 1
T: Fair Enough
T: 8x32J 4C (RSCDS Bk 51)
P: Miss Gibson of Maybole
C: by Seonaid Lynn
C: arr. T. Traub 8-12-2017
R: jig
M: 6/8
L: 1/8
K: Am
|: c|"Am"e2 e "E7"dcB|"Am"cAA A2 c|"G"BdB "E7"^Ged|"Am"cBA "E7"BEd|"Am"e2 e "E7"dcB |"Am"cAA A2 c|"E"Bee E^GB|"Am" A3 A2 :|
e |"Am"a2 a- aec|"Dm"fdd d2 f|"G"g2 g- gdf|"C"ecc c2 e|"F"f3 "A7"f2 e|"Dm"dBB Bcd|"E"eEe dcB|"Am"A3 Acd||
"Am"e3 eag|"Dm"fef def|"G"gdB Bcd|"C"ede c2 e|"F"fed fed|"Am"ecA "F"a2 f|"E"eEe dcB|"Am"cAA A2 |]
